X: 387
T: The Round Tower
%R: jig
Z: 2014 John Chambers <jc:trillian.mit.edu>
B: Preston "Twenty four Country Dances for the Year 1800" p.174 #1
F: http://www.vwml.org/browse/browse-collections-dance-tune-books/browse-prestons1800# 2014-8-10
M: 6/8
L: 1/8
K: Bb
F |\
BcB dBB | cBB dBB | BcB dBB | ecc c2F |\
BcB dBB | cBB dBB | Fff f2e | dBB B2 :|
|: F |\
FDF F2B | FDF G2B | FDF B2d | ecc c2F |\
FDF F2B | FDF G2B | Fff f2e | dBB B2 :|
% - - - - - - - - - - - - - - - - - - - - - - - - -
%%begintext align
%% 1st Lady set to the 2d Gent: & turn the 3d
%% Gent: .| 1st Gent: set to the 2d & turn 3d Lady :|
%% lead down the middle & foot it :|. right & left at top :|:
%%endtext
% - - - - - - - - - - - - - - - - - - - - - - - - -

%%sep 1 1 500
%%sep 1 1 500
